dist/logo/star.svg

<svg width="24" height="24" viewBox="0 0 24 24" fill="none" xmlns="http://www.w3.org/2000/svg">
<path fill-rule="evenodd" clip-rule="evenodd" d="M12.9511 2.92704C12.6517 2.00573 11.3483 2.00573 11.0489 2.92704L9.53034 7.6008C9.39647 8.01282 9.01251 8.29178 8.57929 8.29178H3.665C2.69628 8.29178 2.2935 9.5314 3.07722 10.1008L7.05296 12.9893C7.40344 13.244 7.5501 13.6954 7.41623 14.1074L5.89763 18.7811C5.59828 19.7024 6.65276 20.4686 7.43647 19.8992L11.4122 17.0106C11.7627 16.756 12.2373 16.756 12.5878 17.0106L16.5635 19.8992C17.3472 20.4686 18.4017 19.7024 18.1024 18.7811L16.5838 14.1074C16.4499 13.6954 16.5965 13.244 16.947 12.9893L20.9228 10.1008C21.7065 9.5314 21.3037 8.29178 20.335 8.29178H15.4207C14.9875 8.29178 14.6035 8.01282 14.4697 7.6008L12.9511 2.92704Z" fill="#3B3B3B"/>
</svg>

<svg width="24" height="24" fill="none" xmlns="http://www.w3.org/2000/svg"><path fill-rule="evenodd" clip-rule="evenodd" d="M12.951 2.927c-.3-.921-1.603-.921-1.902 0L9.53 7.601a1 1 0 01-.95.69H3.664c-.969 0-1.372 1.24-.588 1.81l3.976 2.888a1 1 0 01.363 1.118l-1.518 4.674c-.3.921.755 1.688 1.538 1.118l3.976-2.888a1 1 0 011.176 0l3.976 2.888c.783.57 1.838-.197 1.538-1.118l-1.518-4.674a1 1 0 01.363-1.118l3.976-2.888c.784-.57.38-1.81-.588-1.81H15.42a1 1 0 01-.951-.69L12.95 2.927z" fill="#3B3B3B"/></svg>
